Dominus_Dark_Funeral/22/apps/bleachbit.svg

<svg xmlns="http://www.w3.org/2000/svg" width="24" height="24" viewBox="0 0 6.35 6.35"><defs><linearGradient id="a"><stop offset="0"/><stop offset="1" stop-opacity="0"/></linearGradient><linearGradient id="b" x1="24.82" x2="25" y1="15.38" y2="37.28" gradientTransform="matrix(.79363 0 0 .9639 65.3 -7.76)" gradientUnits="userSpaceOnUse"><stop offset="0" stop-color="#eacfb0"/><stop offset=".24" stop-color="#b09b77"/><stop offset=".28" stop-color="#e3cfa5"/><stop offset="1" stop-color="#997b53"/></linearGradient><linearGradient id="c"><stop offset="0" stop-color="#cee14b"/><stop offset="1" stop-color="#9db029"/></linearGradient></defs><path d="M5.3.27c-.06 0-.14.05-.2.15l-.28.53-.25.54-.3.59-.2.48-.23-.1-.33-.14h-.08l-.07.02-.11.15-.32.42.01.04.04.05.23.14.3.19c.36.22.57.5.96.61l.49.06h.08v-.02l.08-.44.05-.35v-.07l-.03-.08-.29-.13-.16-.07-.1-.06h-.01v-.03l.18-.41.15-.37.19-.5.15-.35.12-.31.1-.3c.04-.15-.05-.25-.16-.24zM2.87 3.05l-.35.4-.28.26-.3.2-.36.2-.42.15-.27.06-.01.03.01.1.07.15.13.25.12.19.25.25.11.11.1.04h.45l-.27.18v.04L2 5.8l.22.13c.28.15.54-.16.54-.16s-.14.24-.13.32h.27l.14-.02.16-.08-.05.08h.29c.3 0 .5-.18.7-.37l.18-.23.15-.22.11-.2.18-.41.13-.34.07-.17H4.9l-.49-.06c-.39-.1-.6-.4-.96-.61l-.3-.19-.24-.14-.03-.05v-.02h-.02z" fill="#e6e6e6"/></svg>

<?xml version="1.0" encoding="UTF-8" standalone="no"?>
<svg
   xmlns:dc="http://purl.org/dc/elements/1.1/"
   xmlns:cc="http://creativecommons.org/ns#"
   xmlns:rdf="http://www.w3.org/1999/02/22-rdf-syntax-ns#"
   xmlns:svg="http://www.w3.org/2000/svg"
   xmlns="http://www.w3.org/2000/svg"
   xmlns:sodipodi="http://sodipodi.sourceforge.net/DTD/sodipodi-0.dtd"
   xmlns:inkscape="http://www.inkscape.org/namespaces/inkscape"
   width="24"
   height="24"
   viewBox="0 0 6.35 6.35"
   version="1.1"
   id="svg25"
   sodipodi:docname="bleachbit.svg"
   inkscape:version="0.92.4 (5da689c313, 2019-01-14)">
  <metadata
     id="metadata29">
    <rdf:RDF>
      <cc:Work
         rdf:about="">
        <dc:format>image/svg+xml</dc:format>
        <dc:type
           rdf:resource="http://purl.org/dc/dcmitype/StillImage" />
        <dc:title></dc:title>
      </cc:Work>
    </rdf:RDF>
  </metadata>
  <sodipodi:namedview
     pagecolor="#ffffff"
     bordercolor="#666666"
     borderopacity="1"
     objecttolerance="10"
     gridtolerance="10"
     guidetolerance="10"
     inkscape:pageopacity="0"
     inkscape:pageshadow="2"
     inkscape:window-width="1142"
     inkscape:window-height="480"
     id="namedview27"
     showgrid="false"
     inkscape:zoom="9.8333333"
     inkscape:cx="1.2711864"
     inkscape:cy="12"
     inkscape:window-x="0"
     inkscape:window-y="25"
     inkscape:window-maximized="0"
     inkscape:current-layer="svg25" />
  <defs
     id="defs21">
    <linearGradient
       id="a">
      <stop
         offset="0"
         id="stop2" />
      <stop
         offset="1"
         stop-opacity="0"
         id="stop4" />
    </linearGradient>
    <linearGradient
       id="b"
       x1="24.82"
       x2="25"
       y1="15.38"
       y2="37.28"
       gradientTransform="matrix(.79363 0 0 .9639 65.3 -7.76)"
       gradientUnits="userSpaceOnUse">
      <stop
         offset="0"
         stop-color="#eacfb0"
         id="stop7" />
      <stop
         offset=".24"
         stop-color="#b09b77"
         id="stop9" />
      <stop
         offset=".28"
         stop-color="#e3cfa5"
         id="stop11" />
      <stop
         offset="1"
         stop-color="#997b53"
         id="stop13" />
    </linearGradient>
    <linearGradient
       id="c">
      <stop
         offset="0"
         stop-color="#cee14b"
         id="stop16" />
      <stop
         offset="1"
         stop-color="#9db029"
         id="stop18" />
    </linearGradient>
  </defs>
  <path
     d="M 5.3,0.27 C 5.24,0.27 5.16,0.32 5.1,0.42 L 4.82,0.95 4.57,1.49 4.27,2.08 4.07,2.56 3.84,2.46 3.51,2.32 H 3.43 L 3.36,2.34 3.25,2.49 2.93,2.91 2.94,2.95 2.98,3 3.21,3.14 3.51,3.33 c 0.36,0.22 0.57,0.5 0.96,0.61 L 4.96,4 H 5.04 V 3.98 L 5.12,3.54 5.17,3.19 V 3.12 L 5.14,3.04 4.85,2.91 4.69,2.84 4.59,2.78 H 4.58 V 2.75 L 4.76,2.34 4.91,1.97 5.1,1.47 5.25,1.12 5.37,0.81 5.47,0.51 C 5.51,0.36 5.42,0.26 5.31,0.27 Z M 2.87,3.05 2.52,3.45 2.24,3.71 1.94,3.91 1.58,4.11 1.16,4.26 0.89,4.32 0.88,4.35 0.89,4.45 0.96,4.6 1.09,4.85 1.21,5.04 1.46,5.29 1.57,5.4 1.67,5.44 H 2.12 L 1.85,5.62 V 5.66 L 2,5.8 2.22,5.93 C 2.5,6.08 2.76,5.77 2.76,5.77 c 0,0 -0.14,0.24 -0.13,0.32 H 2.9 L 3.04,6.07 3.2,5.99 3.15,6.07 h 0.29 c 0.3,0 0.5,-0.18 0.7,-0.37 L 4.32,5.47 4.47,5.25 4.58,5.05 4.76,4.64 4.89,4.3 4.96,4.13 H 4.9 L 4.41,4.07 C 4.02,3.97 3.81,3.67 3.45,3.46 L 3.15,3.27 2.91,3.13 2.88,3.08 V 3.06 H 2.86 Z"
     id="path23"
     inkscape:connector-curvature="0"
     style="fill:#e6e6e6" />
</svg>
